src/images/svg/custom/deriv-x.svg

<svg xmlns="http://www.w3.org/2000/svg" width="32" height="32"><defs><linearGradient id="a" x1="63.183%" x2="44.397%" y1="-9.798%" y2="101.954%"><stop offset="0%" stop-color="#F26447"/><stop offset="100%" stop-color="#EF4852"/></linearGradient></defs><g fill-rule="nonzero" fill="none"><path fill="#1A1A1A" d="M0 6a6 6 0 0 1 6-6h20a6 6 0 0 1 6 6v20a6 6 0 0 1-6 6H6a6 6 0 0 1-6-6V6z"/><path fill="url(#a)" d="m6.705 10.5 4.212 5.5-6.75 5.5h6.822a4.278 4.278 0 0 0 4.167-3.316l.565-2.447a4.288 4.288 0 0 0-.82-3.624 4.278 4.278 0 0 0-3.347-1.613H6.705z"/><path fill="#CC2F3E" d="m10.917 16-3 5.5h-3.75z"/><path fill="#FFF" d="M20.526 10.5H17.27l2.563 5.5-4.503 5.5h3.258l4.501-5.5zm4.176 0h3.295l-3.907 4.726-1.181-2.535zm-1.941 11-1.02-2.189 2.076-2.536 2.201 4.725z"/></g></svg>

<svg xmlns="http://www.w3.org/2000/svg" width="32" height="32" viewBox="0 0 32 32">
    <defs>
        <linearGradient id="qebvjuoo4a" x1="63.183%" x2="44.397%" y1="-9.798%" y2="101.954%">
            <stop offset="0%" stop-color="#F26447"/>
            <stop offset="100%" stop-color="#EF4852"/>
        </linearGradient>
    </defs>
    <g fill="none" fill-rule="evenodd">
        <g fill-rule="nonzero">
            <g>
                <g>
                    <g>
                        <g>
                            <path fill="#1A1A1A" d="M0 6c0-3.314 2.686-6 6-6h20c3.314 0 6 2.686 6 6v20c0 3.314-2.686 6-6 6H6c-3.314 0-6-2.686-6-6V6z" transform="translate(-580 -223) translate(203 66) translate(377 30) translate(0 119) translate(0 8)"/>
                            <path fill="url(#qebvjuoo4a)" d="M6.705 10.5l4.212 5.5-6.75 5.5h6.822c.967 0 1.905-.33 2.662-.932.757-.602 1.287-1.442 1.505-2.384l.565-2.447c.144-.627.146-1.278.004-1.906-.142-.627-.424-1.214-.824-1.718-.401-.503-.91-.91-1.49-1.189-.579-.28-1.214-.424-1.857-.424H6.705z" transform="translate(-580 -223) translate(203 66) translate(377 30) translate(0 119) translate(0 8)"/>
                            <path fill="#CC2F3E" d="M10.917 16L7.917 21.5 4.167 21.5z" transform="translate(-580 -223) translate(203 66) translate(377 30) translate(0 119) translate(0 8)"/>
                            <path fill="#FFF" d="M20.526 10.5L17.27 10.5 19.833 16 15.33 21.5 18.588 21.5 23.089 16zM24.702 10.5L27.997 10.5 24.09 15.226 22.909 12.691zM22.761 21.5L21.741 19.311 23.817 16.775 26.018 21.5z" transform="translate(-580 -223) translate(203 66) translate(377 30) translate(0 119) translate(0 8)"/>
                        </g>
                    </g>
                </g>
            </g>
        </g>
    </g>
</svg>
